X:87
T:Le printemps
C:Andr\'e Brunet
S:Les Fr\`eres Brunet CD
M:4/4
L:1/8
K:D
D2FD EDFA | dfec dBAF | D2FA defd | gece fdd2 |
B3B ABAF | GFEG FDFA | dcdf edcA | Bcde fdd2 ::
B3B BcdB | A2EA CAA,A | B3B BcdB | c2ec fcec |
B2FB BcdB | A2EA CAA,A | B3d ABAF | GFEG FDD2 :|
